!!!ONB: MCCC : IJH0446_02 : Extracted Monophonic Melody
!!!COM: Haydn, Joseph
!!!OPR: String Quartet in E-flat major
!!!OMV: 2
!!!SCT: Hob.III:38 ; Op.33 No.2
!!!ODT: 1781///
**kern
*thru
*k[b-e-a-]
*E-:
*clefG
*M3/4
8dd
8ee-
=1
4e-
4e-
8dd
8ee-
=2
4f
4f
8b
8cc
=3
4f
4f
4f
=4
2f
8f
8B-
=5
8f
8B-
8f
8B-
8f
8B-
=6
2f
8d
8f
=7
8a-
8b-
8dd
8ff
8aa-
8ccc
=8
8ccc
8bb-
8aa-
8gg
8ff
8ee-
=9
4b-
4cc
4dd
=10
4ee-
4r
8dd
8ccc
=11
8ccc
8bb-
8aa-
8gg
8ff
8dd
=12
4ee-
4r
8g
8ff
=13
8ff
8ee-
8dd
8cc
8dd
8b
=14
4cc
4r
8f
8ee-
=15
8ee-
8dd
8cc
8b-
8f
8ee-
=16
8ee-
8dd
8cc
8b-
8bb-
8aa
=17
8gg
8ff
8ee-
8dd
8cc
8b-
=18
8a
8g
8f
8e-
8d
8c
=19
4B-
4B-
4B-
=20
4B-
4r
8dd-
8cc
=21
8dd-
8cc
8dd-
8cc
8dd-
8cc
=22
2cc
8cc-
8b-
=23
8cc-
8b-
8cc-
8b-
8cc-
8b-
=24
2b-
8dd
8ee-
=25
4e-
4e-
8dd
8ee-
=26
4f
4f
8b
8cc
=27
4f
4f
4f
=28
2f
8f
8B-
=29
8f
8B-
8f
8B-
8f
8B-
=30
2f
8d
8f
=31
8a-
8b-
8dd
8ff
8aa-
8ccc
=32
8ccc
8bb-
8aa-
8gg
8ff
8ee-
=33
4b-
4cc
4dd
=34
4ee-
4r
4gg
=35
4gg
8bb-
8r
4bb-
=36
4bb-
8eee-
8r
4eee-
=37
4ddd
8ddd
8eee-
8fff
8ggg
=38
4aaa-
4r
4b-
=39
4b-
8dd
8r
4dd
=40
4dd
8ff
8r
4aa-
=41
8aa-
8gg
8bb-
8aa-
8gg
8ff
=42
4ee-
4r
4gg
=43
4gg
8ccc
8r
4ccc
=44
4bb
8ddd
8r
4ddd
=45
4eee-
8ggg
8fff
8eee-
8ddd
=46
4ccc
4r
4ff
=47
4ff
8bb-
8r
4bb-
=48
4aa
8ccc
8r
4ccc
=49
4ddd
8fff
8eee-
8ddd
8ccc
=50
4bb-
4r
4fff
=51
4fff
4gg
4gg
=52
2gg
4eee-
=53
4eee-
4ff
4ff
=54
2ff
4ddd
=55
8ddd
8ccc
8eee-
8ccc
8bb-
8aa
=56
4bb-
4r
4b-
=57
8dd
8r
4dd
8ee-
16dd
16ee-
=58
2ff
4dd
=59
8ff
8r
4ff
8gg
16ff
16gg
=60
4aa-
4r
4gg
=61
4gg
8bb-
8r
4bb-
=62
4bb-
8eee-
8r
4eee-
=63
4ddd
8ddd
8eee-
8fff
8ggg
=64
4aaa-
4r
4b-
=65
4b-
8dd
8r
4dd
=66
4dd
8ff
8r
4aa-
=67
8aa-
8gg
8bb-
8aa-
8gg
8ff
=68
4ee-
2r
==
*-
